!!!COM: Bach, Johann Sebastian
!!!CDT: 1685/3//-1750/7/28/
!!!OTL@@DE: Liebster Jesu, wir sind hier
!!!AGN: 4-Part Chorale
!!!SCT: BH 328
!!!SCT: BWV 373
**harm	**root	**kern	**kern	**kern	**kern
!	!	!bass	!tenor	!alto	!soprno
*	*Iorgan	*Iorgan	*Iorgan	*Iorgan	*Iorgan
*M4/4	*M4/4	*M4/4	*M4/4	*M4/4	*M4/4
*met(c)	*met(c)	*met(c)	*met(c)	*met(c)	*met(c)
*MM60	*MM60	*MM60	*MM60	*MM60	*MM60
*k[]	*k[]	*k[]	*k[]	*k[]	*k[]
*C:	*C:	*C:	*C:	*C:	*C:
*>[A,A,B]	*>[A,A,B]	*>[A,A,B]	*>[A,A,B]	*>[A,A,B]	*>[A,A,B]
*>A	*>A	*>A	*>A	*>A	*>A
=1-	=1-	=1-	=1-	=1-	=1-
I	4GG	4C	8c	4g	4ee
.	.	.	8d	.	.
I	4GG	[4c	4e	4g	8dd
.	.	.	.	.	8cc
Vb	4DD	8c]	4d	4g	4dd
.	.	8B	.	.	.
V	4DD	8A	4d	4b	4gg
.	.	8G	.	.	.
=2	=2	=2	=2	=2	=2
I	4GG	8c	8e	4g	4ee
.	.	8d	8f	.	.
Ib	4GG	8e	4g	8g	4cc
.	.	8c	.	8a	.
V;	2DD;	2G;	2g;	2b;	2dd;
=3	=3	=3	=3	=3	=3
vi	4EE	8AA	4e	4a	4cc
.	.	4A	.	.	.
V7c/IV	4GG	.	4e	4b-	4cc
.	.	8G	.	.	.
IV	4CC	8FF	4f	4a	4cc
.	.	4F	.	.	.
Ib	4GG	.	4c	4g	4cc
.	.	8E	.	.	.
=4	=4	=4	=4	=4	=4
ii	4AA	4D	4f	8a	4dd
.	.	.	.	8by	.
I	4GG	8C	4g	4cc	4ee
.	.	8E	.	.	.
ii7b	4AA	8F	8a	4cc	2dd
.	.	8D	8f	.	.
V	4DD	4G	8d	4b	.
.	.	.	16g	.	.
.	.	.	16f	.	.
=5	=5	=5	=5	=5	=5
I;	1GG;	1C;	1e;	1g;	1cc;
*>B	*>B	*>B	*>B	*>B	*>B
!!linebreak: 2
=6:|!	=6:|!	=6:|!	=6:|!	=6:|!	=6:|!
I	4GG	8C	4c	4e	4g
.	.	4c	.	.	.
Vb	4DD	.	4d	4d	4g
.	.	8B	.	.	.
viiob/V	4CC#	4A	4c	8e	4a
.	.	.	.	8f#	.
V	4DD	[4G	4d	4g	4b
=7	=7	=7	=7	=7	=7
vi7d	4EE	4G]	4e	4a	4cc
Vb/V	4AA	4F#	4d	4a	8dd
.	.	.	.	.	8cc
V	4DD	4G	8d	4g	8b
.	.	.	8c	.	8a
V;	4DD;	4G;	4B;	4d;	4g;
=8	=8	=8	=8	=8	=8
Ib	4GG	8E	4.c	8g	4cc
.	.	8C	.	8e	.
ii7	8AA	8D	.	8f	4cc
V7b/IV	8GG	8E	8B-	8g	.
IV	4CC	8F	8A	4a	4cc
.	.	8G	8B	.	.
IV	4CC	8F	8c	4a	4cc
.	.	8E	16d	.	.
.	.	.	16e	.	.
=9	=9	=9	=9	=9	=9
ii	4AA	4D	4f	8a	4dd
.	.	.	.	8b	.
I	4GG	4C	4g	[4cc	4ee
V	2DD	2G	4.g	8cc]	2dd
.	.	.	.	8a	.
.	.	.	.	4b	.
.	.	.	8f	.	.
=10	=10	=10	=10	=10	=10
I;	1GG;	1C;	1e;	1g;	1cc;
==	==	==	==	==	==
*-	*-	*-	*-	*-	*-
!!chor2scor: -l 2 -s 0.6 -o %b.pmx
!!!YEC: Copyright 1994, David Huron
!!!YEC: Changes/Additions 2001 by Craig Stuart Sapp
!!!YEN: United States of America
!!!SMA: 371 Bach Chorales, edited by Ludwig Erk, C.F. Peters
!!!PDT: 1850, 1865
!!!ONB: Harmony and Root analysis done manually
